src/assets/images/volleyball.svg

<svg xmlns="http://www.w3.org/2000/svg" enable-background="new 0 0 1920 1080" viewBox="0 0 1920 1080"><circle cx="1002.4" cy="441.1" r="441.1" fill="#2a94f4" opacity=".1"/><path fill="#0e538c" d="M900 396c4-34.1-67.2-20.2-73.1 34.6s3.5 100.9-70.4 90.9c0 0 74.1 57.7 103.6.3 29.6-57.4 36.7-98 39.9-125.8z"/><path fill="#0e538c" d="M959.2 503.1s-62.4 3.7-73.7-86.3c0 0 20.6-43.4 91.6-37.1s-17.9 123.4-17.9 123.4z"/><circle cx="965" cy="440.8" r="62.3" fill="#0e538c"/><path fill="#ffbe55" d="m1156.7 731.4 10-2.6-14.3-10.1zM1002.4 721.2s17.2 9.7 40.9 6.5c23.7-3.3-3.8-50.2-40.9-6.5z"/><path fill="#fcd2b1" d="M1027.1 740s-5.9-32.9-11.8-57.1c-5.9-24.2 130.2 13.5 130.2 13.5s17.3 20 16.4 46.3c-.8 26.4-134.8-2.7-134.8-2.7zM1151.9 615.5s67.2-3.8 78.9-11.7c23.2-15.6 15.4-160 7.9-178.8-7.5-18.9-51.2-32.7-51.7-47.8-.5-15.1-11.1-9-12.2 3.2-1.1 12.9-4.8 28.1 35 44 8.1 3.2 2.7 122.8-3.8 128.2-6.5 5.4-44.1 2.7-44.1 2.7s-28.9 55.4-10 60.2z"/><path fill="#ffe3ca" d="M866.6 512.5s-98.4-54.4-108.4-52.4c-36.1 7.1-.7 63.7 97.2 103.8 0 0 52.9 2 11.2-51.4z"/><path fill="#fcd2b1" d="M1064.6 846.6s-7.1 113.2-2.1 121.9c0 0-143.2-2.4-202.9 18.9 0 0-27-22.9-39.5-17.4s-26.6 39.3-47.8 56.4c-21.1 17.1-10.2 52.9 5 53.6s31.2-60.2 71.4-58.6c40.2 1.7 208.5 6.6 245.4-2.3 36.9-8.8 67.8-156.8 67.8-156.8s-54.4-38.1-97.3-15.7z"/><path fill="#ffbe55" d="M867 990.4s-3.3 2.8-8.7.1c-5.4-2.7-37.7 21.8-26.1 35.7 0 0-19.9 12.8-25.9 24.1s-21.8 31.8-38.2 27.5c-16.4-4.3-12.1-47.7 0-54.9s34.7-29.9 39.9-41.5c5.1-11.6 23.8-16.6 30.6-15.1 10.8 2.4 28.4 24.1 28.4 24.1z"/><path fill="#ffe3ca" d="M1005.7 838.6s-17.6 112.1-13.4 121.2c0 0-142.3-15.6-203.7 0 0 0-24.8-25.3-37.7-21-12.9 4.3-30.2 36.6-52.8 51.7-22.6 15.1-15.1 51.7 0 53.9 15.1 2.2 36.6-57.1 76.5-51.7 39.9 5.4 207 25.9 244.5 20.5 37.6-5.4 82-149.8 82-149.8s-50.6-43.1-95.4-24.8z"/><path fill="#ffbe55" d="m1161.9 742.7 4.7 128.6s-46.1 6.7-65.5-2c-19.4-8.6 52.1-116.8 60.8-126.6zM1047.6 539.1s90.7 8.6 114.3 16.2c0 0 25.8 49.8-6.6 62.1l-80.8-6.1s-60.3-33.4-26.9-72.2z"/><path fill="#fcd2b1" d="M947.3 492.8s34.6 26.9 36.8 46.3l-54.2 2.5 98 26.9 32.1-27.4-12.3-2s-29.1-57.1-47.4-62.5c-18.4-5.4-43.4 3.4-53 16.2z"/><path fill="#ffe3ca" d="M934.5 476.6s-11.9 2.2-9.7 8.6 23.7 7.5 31.2 8.6c0 0 61.4 19.4 72.2-25.9 10.8-45.2-42-76.5-62.5-73.3s15.1 73.4-31.2 82z"/><path fill="#ffbe55" d="M1055.6 540.6c2.7-1.8 62 18.1 71 48.8 5.4 18.3 2.9 18.7 15.8 49.9s25.3 66.9 24.2 89.5c0 0-94.3-47.5-164.3-7.6 0 0 10.1-88-147-157.3 0 0 22-10.2 11.3-51.4 0 0 79.9 16.1 103.4 27.2 28.5 13.5 63 15.9 85.6.9zM1026.8 737.6s87.8-22.9 135.1 5.1c0 0 10.9 81.5-57.9 134.7 0 0-78.1-10.2-107.2-4.8 0 0-7-73.9 13.4-98.6 20.5-24.8 16.6-36.4 16.6-36.4z"/><path fill="#ffe3ca" d="M793.4 494s-68.9-132.1-89.1-136c-14.5-2.8 21.5 134.4 65.4 154.5 43.8 20.1 23.7-18.5 23.7-18.5z"/><path fill="#ffe3ca" d="M697.8 370s-15-14-26-36.5 13.3-35.5 20.5-24.6c7.2 10.9 10.7 19.3 13.8 26.7 3.2 7.4 3-12.5 0-16.2-3.1-3.7.2-11.8 8.7 2.4s12.8 72.4-17 48.2z"/><path fill="#ffbe55" d="M789.2 959.6s-3.3 2.8-8.7.1c-5.4-2.7-37.7 21.8-26.1 35.7 0 0-19.9 12.8-25.9 24.1-5.9 11.3-21.8 31.8-38.2 27.5s-12.1-47.7 0-54.9 34.7-29.9 39.9-41.5c5.1-11.6 23.8-16.6 30.6-15.1 10.8 2.5 28.4 24.1 28.4 24.1z"/><circle cx="1132.2" cy="237.5" r="84.9" fill="#d3d3d3"/><circle cx="1139.3" cy="229.5" r="74.2" fill="#f7f7f7"/><path fill="#d3d3d3" d="m1080.3 276.6-.5-.5c-8.2-8.9-13.1-25.6-13.3-26.3l-.4-1.5 1.6-.3c63.9-10.7 109.8-79.6 110.3-80.3l.9-1.3 1.2 1c.1.1 6.5 5.3 11.9 9.9 5.6 4.8 9.6 11.1 9.8 11.4l.2.4v.5c-4.5 74-119.7 86.9-120.9 87h-.8zm-10.6-26c1.4 4.2 5.6 16.1 11.7 23.1 9.7-1.2 113-15.6 117.6-83.8-.9-1.4-4.5-6.5-9-10.4-4-3.4-8.6-7.2-10.7-8.9-6.7 9.6-50.2 69.1-109.6 80z"/></svg>

<svg width="1920" height="1080" viewBox="0 0 1920 1080" fill="none" xmlns="http://www.w3.org/2000/svg">
<g id="volleyball 1" clip-path="url(#clip0_1_2)">
<path id="Vector" opacity="0.1" d="M1002.4 882.2C1246.01 882.2 1443.5 684.713 1443.5 441.1C1443.5 197.487 1246.01 0 1002.4 0C758.787 0 561.3 197.487 561.3 441.1C561.3 684.713 758.787 882.2 1002.4 882.2Z" fill="#2A94F4"/>
<g id="Person-Body">
<path id="Vector_2" d="M900 396C904 361.9 832.8 375.8 826.9 430.6C821 485.4 830.4 531.5 756.5 521.5C756.5 521.5 830.6 579.2 860.1 521.8C889.7 464.4 896.8 423.8 900 396Z" fill="#0E538C"/>
<path id="Vector_3" d="M959.2 503.1C959.2 503.1 896.8 506.8 885.5 416.8C885.5 416.8 906.1 373.4 977.1 379.7C1048.1 386 959.2 503.1 959.2 503.1Z" fill="#0E538C"/>
<path id="Vector_4" d="M965 503.1C999.407 503.1 1027.3 475.207 1027.3 440.8C1027.3 406.393 999.407 378.5 965 378.5C930.593 378.5 902.7 406.393 902.7 440.8C902.7 475.207 930.593 503.1 965 503.1Z" fill="#0E538C"/>
<path id="Vector_5" d="M1156.7 731.4L1166.7 728.8L1152.4 718.7L1156.7 731.4ZM1002.4 721.2C1002.4 721.2 1019.6 730.9 1043.3 727.7C1067 724.4 1039.5 677.5 1002.4 721.2Z" fill="#FFBE55"/>
<path id="Vector_6" d="M1027.1 740C1027.1 740 1021.2 707.1 1015.3 682.9C1009.4 658.7 1145.5 696.4 1145.5 696.4C1145.5 696.4 1162.8 716.4 1161.9 742.7C1161.1 769.1 1027.1 740 1027.1 740ZM1151.9 615.5C1151.9 615.5 1219.1 611.7 1230.8 603.8C1254 588.2 1246.2 443.8 1238.7 425C1231.2 406.1 1187.5 392.3 1187 377.2C1186.5 362.1 1175.9 368.2 1174.8 380.4C1173.7 393.3 1170 408.5 1209.8 424.4C1217.9 427.6 1212.5 547.2 1206 552.6C1199.5 558 1161.9 555.3 1161.9 555.3C1161.9 555.3 1133 610.7 1151.9 615.5Z" fill="#FCD2B1"/>
<path id="Vector_7" d="M866.6 512.5C866.6 512.5 768.2 458.1 758.2 460.1C722.1 467.2 757.5 523.8 855.4 563.9C855.4 563.9 908.3 565.9 866.6 512.5Z" fill="#FFE3CA"/>
<path id="Vector_8" d="M1064.6 846.6C1064.6 846.6 1057.5 959.8 1062.5 968.5C1062.5 968.5 919.3 966.1 859.6 987.4C859.6 987.4 832.6 964.5 820.1 970C807.6 975.5 793.5 1009.3 772.3 1026.4C751.2 1043.5 762.1 1079.3 777.3 1080C792.5 1080.7 808.5 1019.8 848.7 1021.4C888.9 1023.1 1057.2 1028 1094.1 1019.1C1131 1010.3 1161.9 862.3 1161.9 862.3C1161.9 862.3 1107.5 824.2 1064.6 846.6Z" fill="#FCD2B1"/>
<path id="Vector_9" d="M867 990.4C867 990.4 863.7 993.2 858.3 990.5C852.9 987.8 820.6 1012.3 832.2 1026.2C832.2 1026.2 812.3 1039 806.3 1050.3C800.3 1061.6 784.5 1082.1 768.1 1077.8C751.7 1073.5 756 1030.1 768.1 1022.9C780.2 1015.7 802.8 993 808 981.4C813.1 969.8 831.8 964.8 838.6 966.3C849.4 968.7 867 990.4 867 990.4Z" fill="#FFBE55"/>
<path id="Vector_10" d="M1005.7 838.6C1005.7 838.6 988.1 950.7 992.3 959.8C992.3 959.8 850 944.2 788.6 959.8C788.6 959.8 763.8 934.5 750.9 938.8C738 943.1 720.7 975.4 698.1 990.5C675.5 1005.6 683 1042.2 698.1 1044.4C713.2 1046.6 734.7 987.3 774.6 992.7C814.5 998.1 981.6 1018.6 1019.1 1013.2C1056.7 1007.8 1101.1 863.4 1101.1 863.4C1101.1 863.4 1050.5 820.3 1005.7 838.6Z" fill="#FFE3CA"/>
<path id="Vector_11" d="M1161.9 742.7L1166.6 871.3C1166.6 871.3 1120.5 878 1101.1 869.3C1081.7 860.7 1153.2 752.5 1161.9 742.7ZM1047.6 539.1C1047.6 539.1 1138.3 547.7 1161.9 555.3C1161.9 555.3 1187.7 605.1 1155.3 617.4L1074.5 611.3C1074.5 611.3 1014.2 577.9 1047.6 539.1Z" fill="#FFBE55"/>
<path id="Vector_12" d="M947.3 492.8C947.3 492.8 981.9 519.7 984.1 539.1L929.9 541.6L1027.9 568.5L1060 541.1L1047.7 539.1C1047.7 539.1 1018.6 482 1000.3 476.6C981.9 471.2 956.9 480 947.3 492.8Z" fill="#FCD2B1"/>
<path id="Vector_13" d="M934.5 476.6C934.5 476.6 922.6 478.8 924.8 485.2C927 491.6 948.5 492.7 956 493.8C956 493.8 1017.4 513.2 1028.2 467.9C1039 422.7 986.2 391.4 965.7 394.6C945.2 397.8 980.8 468 934.5 476.6Z" fill="#FFE3CA"/>
<path id="Vector_14" d="M1055.6 540.6C1058.3 538.8 1117.6 558.7 1126.6 589.4C1132 607.7 1129.5 608.1 1142.4 639.3C1155.3 670.5 1167.7 706.2 1166.6 728.8C1166.6 728.8 1072.3 681.3 1002.3 721.2C1002.3 721.2 1012.4 633.2 855.3 563.9C855.3 563.9 877.3 553.7 866.6 512.5C866.6 512.5 946.5 528.6 970 539.7C998.5 553.2 1033 555.6 1055.6 540.6ZM1026.8 737.6C1026.8 737.6 1114.6 714.7 1161.9 742.7C1161.9 742.7 1172.8 824.2 1104 877.4C1104 877.4 1025.9 867.2 996.8 872.6C996.8 872.6 989.8 798.7 1010.2 774C1030.7 749.2 1026.8 737.6 1026.8 737.6Z" fill="#FFBE55"/>
<path id="Vector_15" d="M793.4 494C793.4 494 724.5 361.9 704.3 358C689.8 355.2 725.8 492.4 769.7 512.5C813.5 532.6 793.4 494 793.4 494Z" fill="#FFE3CA"/>
<path id="Vector_16" d="M697.8 370C697.8 370 682.8 356 671.8 333.5C660.8 311 685.1 298 692.3 308.9C699.5 319.8 703 328.2 706.1 335.6C709.3 343 709.1 323.1 706.1 319.4C703 315.7 706.3 307.6 714.8 321.8C723.3 336 727.6 394.2 697.8 370Z" fill="#FFE3CA"/>
<path id="Vector_17" d="M789.2 959.6C789.2 959.6 785.9 962.4 780.5 959.7C775.1 957 742.8 981.5 754.4 995.4C754.4 995.4 734.5 1008.2 728.5 1019.5C722.6 1030.8 706.7 1051.3 690.3 1047C673.9 1042.7 678.2 999.3 690.3 992.1C702.4 984.9 725 962.2 730.2 950.6C735.3 939 754 934 760.8 935.5C771.6 938 789.2 959.6 789.2 959.6Z" fill="#FFBE55"/>
</g>
<g id="Volleyball">
<path id="Vector_18" d="M1132.2 322.4C1179.09 322.4 1217.1 284.389 1217.1 237.5C1217.1 190.611 1179.09 152.6 1132.2 152.6C1085.31 152.6 1047.3 190.611 1047.3 237.5C1047.3 284.389 1085.31 322.4 1132.2 322.4Z" fill="#D3D3D3"/>
<path id="Vector_19" d="M1139.3 303.7C1180.28 303.7 1213.5 270.48 1213.5 229.5C1213.5 188.52 1180.28 155.3 1139.3 155.3C1098.32 155.3 1065.1 188.52 1065.1 229.5C1065.1 270.48 1098.32 303.7 1139.3 303.7Z" fill="#F7F7F7"/>
<path id="Vector_20" d="M1080.3 276.6L1079.8 276.1C1071.6 267.2 1066.7 250.5 1066.5 249.8L1066.1 248.3L1067.7 248C1131.6 237.3 1177.5 168.4 1178 167.7L1178.9 166.4L1180.1 167.4C1180.2 167.5 1186.6 172.7 1192 177.3C1197.6 182.1 1201.6 188.4 1201.8 188.7L1202 189.1V189.6C1197.5 263.6 1082.3 276.5 1081.1 276.6H1080.3ZM1069.7 250.6C1071.1 254.8 1075.3 266.7 1081.4 273.7C1091.1 272.5 1194.4 258.1 1199 189.9C1198.1 188.5 1194.5 183.4 1190 179.5C1186 176.1 1181.4 172.3 1179.3 170.6C1172.6 180.2 1129.1 239.7 1069.7 250.6Z" fill="#D3D3D3"/>
</g>
</g>
<defs>
<clipPath id="clip0_1_2">
<rect width="1920" height="1080" fill="white"/>
</clipPath>
</defs>
</svg>
